!!!COM: Palestrina, Giovanni Perluigi da
!!!OPR: Laudate Dominum
!!!OTL: Kyrie II
**kern	**kern	**kern	**kern	**kern	**kern	**kern	**kern
*Ibass	*Itenor	*Icalto	*Icant	*Ibass	*Itenor	*Icalto	*Icant
!Bassus	!Tenor	!Altus	!Cantus	!Bassus	!Tenor	!Altus	!Cantus
*clefF4	*clefGv2	*clefG2	*clefG2	*clefF4	*clefGv2	*clefG2	*clefG2
*k[b-]	*k[b-]	*k[b-]	*k[b-]	*k[b-]	*k[b-]	*k[b-]	*k[b-]
*F:ion	*F:ion	*F:ion	*F:ion	*F:ion	*F:ion	*F:ion	*F:ion
*M4/2	*M4/2	*M4/2	*M4/2	*M4/2	*M4/2	*M4/2	*M4/2
=1	=1	=1	=1	=1	=1	=1	=1
0r	1.G	0r	1r	0r	0r	0r	0r
.	.	.	[1g	.	.	.	.
.	2G	.	.	.	.	.	.
=2	=2	=2	=2	=2	=2	=2	=2
1.C	2G	1.e	2g]	0r	0r	0r	0r
.	2.c	.	2g	.	.	.	.
.	.	.	2g	.	.	.	.
.	4B-	.	.	.	.	.	.
2C	2A	2e	[2cc	.	.	.	.
=3	=3	=3	=3	=3	=3	=3	=3
2C	2G	2e	2cc]	0r	0r	0r	0r
1F	2F	2f	2a	.	.	.	.
.	1A	2c	2cc	.	.	.	.
2D	.	2f	[2dd	.	.	.	.
=4	=4	=4	=4	=4	=4	=4	=4
1G	1B-	2d	2dd]	0r	0r	0r	0r
.	.	2e	4cc	.	.	.	.
.	.	.	4b-	.	.	.	.
1F	[1c	1f	2.a	.	.	.	.
.	.	.	4b-	.	.	.	.
=5	=5	=5	=5	=5	=5	=5	=5
2E	2c]	2g	1cc	0r	0r	0r	0r
2F	2A	2f	.	.	.	.	.
4BB-	1B-	[1f	1dd	.	.	.	.
4C	.	.	.	.	.	.	.
4D	.	.	.	.	.	.	.
4E	.	.	.	.	.	.	.
=6	=6	=6	=6	=6	=6	=6	=6
0F	0A	0f]	0cc	1.FF	0F	1.c	1.a
.	.	.	.	2FF	.	2c	2a
=7	=7	=7	=7	=7	=7	=7	=7
0r	0r	0r	0r	2FF	1F	2c	2a
.	.	.	.	1BB-	.	2.d	2b-
.	.	.	.	.	2.B-	.	2f
.	.	.	.	.	.	4c	.
.	.	.	.	2GG	.	4d	2b-
.	.	.	.	.	8A	4e	.
.	.	.	.	.	8G	.	.
=8	=8	=8	=8	=8	=8	=8	=8
0r	0r	0r	0r	1D	4F	1.f	1.a
.	.	.	.	.	4G	.	.
.	.	.	.	.	4A	.	.
.	.	.	.	.	4B-	.	.
.	.	.	.	1C	1c	.	.
.	.	.	.	.	.	2e	4g
.	.	.	.	.	.	.	4f
=9	=9	=9	=9	=9	=9	=9	=9
1r	1r	1r	1r	2BB-	2d	2d	1g
.	.	.	.	2C	2c	2e	.
2r	2r	2r	2r	[1FF	2.c	[1f	2.a
[2FF	[2F	[2c	[2a	.	.	.	.
.	.	.	.	.	4B-	.	4b-
=10	=10	=10	=10	=10	=10	=10	=10
2FF]	2F]	2c]	2a]	1FF]	1A	1f]	1cc
2FF	2F	2c	2a	.	.	.	.
2FF	1F	2c	2a	1r	1r	1r	1r
[2BB-	.	[2d	2b-	.	.	.	.
=11	=11	=11	=11	=11	=11	=11	=11
2BB-]	2.B-	4d]	2f	0r	0r	0r	0r
.	.	4c	.	.	.	.	.
2GG	.	4d	2b-	.	.	.	.
.	8A	4e	.	.	.	.	.
.	8G	.	.	.	.	.	.
1D	2F	2f	2a	.	.	.	.
.	2F	2d	2b-	.	.	.	.
=12	=12	=12	=12	=12	=12	=12	=12
0C	0G	0e	0cc	2r	2r	2r	2r
.	.	.	.	1C	1c	1e	1g
.	.	.	.	2C	2c	2e	2g
=13	=13	=13	=13	=13	=13	=13	=13
0r	0r	0r	0r	2C	2.c	2e	2g
.	.	.	.	1F	.	2f	2a
.	.	.	.	.	4B-	.	.
.	.	.	.	.	2A	2c	2cc
.	.	.	.	2D	[2d	2f	4b-
.	.	.	.	.	.	.	4a
=14	=14	=14	=14	=14	=14	=14	=14
0r	0r	0r	0r	1G	2d]	2d	1b-
.	.	.	.	.	4c	2e	.
.	.	.	.	.	4B-	.	.
.	.	.	.	1F	[1c	1f	1a
=15	=15	=15	=15	=15	=15	=15	=15
1r	1r	1r	1r	2E	1c]	2g	2g
.	.	.	.	2F	.	2f	2a
2r	2r	2r	2r	1BB-	1d	1f	1b-
2BB-	2B-	2f	2dd	.	.	.	.
=16	=16	=16	=16	=16	=16	=16	=16
2AA	2c	2f	2cc	1r	1r	1r	1r
2BB-	2d	2.f	2b-	.	.	.	.
4FF	1c	.	2a	2r	2r	2r	2r
4GG	.	4e	.	.	.	.	.
4AA	.	4c	[2cc	2F	2F	2c	2a
4FF	.	4d	.	.	.	.	.
=17	=17	=17	=17	=17	=17	=17	=17
2C	2.C	2e	4cc]	2E	2G	2c	2g
.	.	.	4b-	.	.	.	.
2FF	.	2c	2a	2F	2A	2c	2f
.	4D	.	.	.	.	.	.
1C	1E	1c	1g	4C	4c	2.c	2e
.	.	.	.	4D	4B-	.	.
.	.	.	.	4E	4G	.	[2g
.	.	.	.	4C	4A	4e	.
=18	=18	=18	=18	=18	=18	=18	=18
0r	0r	0r	0r	2G	2B	2d	4g]
.	.	.	.	.	.	.	4f
.	.	.	.	2C	1c	2.g	2e
.	.	.	.	1G	.	.	1d
.	.	.	.	.	.	4g	.
.	.	.	.	.	2B	2g	.
=19	=19	=19	=19	=19	=19	=19	=19
2r	2r	2r	2r	1C	1c	1e	1g
2C	2C	2e	2g	.	.	.	.
2BB	2D	2d	2g	1r	1r	1r	1r
2C	2E	2c	2g	.	.	.	.
=20	=20	=20	=20	=20	=20	=20	=20
4GG	2G	0d	1b-	2r	1r	2r	2r
4AA	.	.	.	.	.	.	.
4BB-	2D	.	.	2G	.	2d	2g
4GG	.	.	.	.	.	.	.
2D	2.D	.	2a	2F#	2r	2d	2a
2GG	.	.	2g	2G	2G	2d	2b-
.	4E	.	.	.	.	.	.
=21	=21	=21	=21	=21	=21	=21	=21
1D	4F	1d	2f	4D	2A	2.d	0a
.	4G	.	.	4E	.	.	.
.	2A	.	2d	4F	2d	.	.
.	.	.	.	4D	.	4f	.
1r	1r	1r	1r	2A	2c#	2e	.
.	.	.	.	2D	[2d	4f	.
.	.	.	.	.	.	4d	.
=22	=22	=22	=22	=22	=22	=22	=22
1r	1r	1r	1r	1A	2d]	1e	1a
.	.	.	.	.	2c#	.	.
2r	2r	2r	2r	1D	1d	1d	1f
[2BB-	[2B-	[2d	[2f	.	.	.	.
=23	=23	=23	=23	=23	=23	=23	=23
2BB-]	2B-]	2d]	2f]	0r	0r	1r	0r
2BB-	2B-	2d	2f	.	.	.	.
1BB-	2B-	2d	2f	.	.	2r	.
.	[2d	2B-	2f	.	.	[2f	.
=24	=24	=24	=24	=24	=24	=24	=24
1BB-	4d]	1d	1b-	2r	1r	2f]	1r
.	4c	.	.	.	.	.	.
.	1B-	.	.	1F	.	2f	.
[1FF	.	1c	1cc	.	2r	1f	2r
.	4A	.	.	2F	[2c	.	[2a
.	4G	.	.	.	.	.	.
=25	=25	=25	=25	=25	=25	=25	=25
1FF]	1A	0c	1cc	1F	2c]	1f	2a]
.	.	.	.	.	2c	.	2a
1FF	1A	.	2r	1F	1c	2c	1a
.	.	.	[2cc	.	.	[2f	.
=26	=26	=26	=26	=26	=26	=26	=26
2r	2r	2r	2cc]	0C	0c	2f]	0g
1C	1G	2.c	2cc	.	.	4e	.
.	.	.	.	.	.	4d	.
.	.	.	1cc	.	.	[1e	.
.	.	4d	.	.	.	.	.
2C	2G	4e	.	.	.	.	.
.	.	4f	.	.	.	.	.
=27	=27	=27	=27	=27	=27	=27	=27
1C	1G	2g	1cc	0C	2G	1e]	1g
.	.	2.e	.	.	2C	.	.
1C	1c	.	1g	.	2.E	2r	1cc
.	.	4c	.	.	.	.	.
.	.	2e	.	.	.	[2g	.
.	.	.	.	.	4F	.	.
=28	=28	=28	=28	=28	=28	=28	=28
0GG	4B-	1d	[0g	2r	1G	2g]	2r
.	4A	.	.	.	.	.	.
.	4G	.	.	1G	.	2d	1b-
.	4A	.	.	.	.	.	.
.	4B-	4G	.	.	[1d	2d	.
.	4c	4A	.	.	.	.	.
.	2d	4B-	.	2G	.	4G	2b-
.	.	4c	.	.	.	4A	.
=29	=29	=29	=29	=29	=29	=29	=29
0GG	2.B-	1d	0g]	1G	2d]	4B-	1b-
.	.	.	.	.	.	4c	.
.	.	.	.	.	2d	2d	.
.	4c	.	.	.	.	.	.
.	2d	1B-	.	1G	1d	2G	1b-
.	2G	.	.	.	.	2g	.
=30	=30	=30	=30	=30	=30	=30	=30
2r	2r	2r	2r	0D	0d	2f	4a
.	.	.	.	.	.	.	4g
1BB-	1F	1B-	1dd	.	.	2d	4f
.	.	.	.	.	.	.	4e
.	.	.	.	.	.	2.f	2d
2BB-	2F	2B-	2b-	.	.	.	[2f
.	.	.	.	.	.	4e	.
=31	=31	=31	=31	=31	=31	=31	=31
1BB-	2F	1B-	2b-	2r	1D	1.d	2f]
.	2.D	.	2b-	1F	.	.	2f
1BB-	.	1d	1b-	.	1D	.	2.f
.	4E	.	.	.	.	.	.
.	[2F	.	.	2F	.	4c	.
.	.	.	.	.	.	4B-	4g
=32	=32	=32	=32	=32	=32	=32	=32
0FF	4F]	0c	1cc	1F	2r	4A	2.a
.	4G	.	.	.	.	4B-	.
.	1A	.	.	.	2F	2c	.
.	.	.	.	.	.	.	4b-
.	.	.	2r	1F	2A	2F	1cc
.	2F	.	[2cc	.	2A	[2f	.
=33	=33	=33	=33	=33	=33	=33	=33
0C	0G	0c	2cc]	0C	2G	2f]	2r
.	.	.	2cc	.	2.c	4e	1cc
.	.	.	.	.	.	4d	.
.	.	.	2.cc	.	.	1e	.
.	.	.	.	.	4B-	.	.
.	.	.	.	.	2G	.	2cc
.	.	.	4b-	.	.	.	.
=34	=34	=34	=34	=34	=34	=34	=34
1D	0F	2r	4a	2r	2A	0f	2cc
.	.	.	4g	.	.	.	.
.	.	1f	4f	1BB-	2.B-	.	2.dd
.	.	.	4e	.	.	.	.
2r	.	.	1d	.	.	.	.
.	.	.	.	.	4c	.	4cc
[2BB-	.	2d	.	2BB-	2d	.	4b-
.	.	.	.	.	.	.	4a
=35	=35	=35	=35	=35	=35	=35	=35
2BB-]	0F	1d	0dd	1BB-	0B-	0f	0b-
2BB-	.	.	.	.	.	.	.
2D	.	2d	.	1BB-	.	.	.
2D	.	[2f	.	.	.	.	.
=36	=36	=36	=36	=36	=36	=36	=36
0F	0F	2f]	[0cc	[0FF	1c	[0f	[0a
.	.	4e	.	.	.	.	.
.	.	4d	.	.	.	.	.
.	.	1c	.	.	1A	.	.
=37	=37	=37	=37	=37	=37	=37	=37
0F	0F	0c	0cc]	0FF]	0A	0f]	0a]
==	==	==	==	==	==	==	==
*-	*-	*-	*-	*-	*-	*-	*-
!!!CDT: 1525/^1526/-1594/2/2
!!!OCY: Italia
!!!AGN: Mass (Parody)
!!!AST: renaissance, vocal
!!!ASW: Motet 1572 (Palestrina)
!!!PWK: Masses, Book 8vce
!!!RNB: Cadence finals: C
!!!YOR: Le Opere Complete, v. 30, p. 1
!!!YOO: Rome, Italy: Fratelli Scalera
!!!END: 1992//
!!!EED: John Miller
!!!YEC: Copyright 2000, John Miller
!!!YEN: United States of America
!!!YEM: Rights to all derivative electronic formats reserved.
!!!YEM: Refer to licensing agreement for further details.
!!!YEM: This file must be accompanied by the licensing agreement.
!!!YEM: A copy of the licensing agreement may be found at http://www.music-cog.ohio-state.edu/HumdrumDatabases/Palestrina/license.txt
!!!EMD: converted to Humdrum by Bret Aarden
